X: 17
T:The Saraband
M:6/8
L:1/8
Q:110
R:Jig
K:G
afa geg|fdf e2A|cde fga|gaf g2f|afa geg|fdf e2A|cde fga|gaf g2f||
ccc c>BA|agf e2A|cde fga|gaf e2d|ccc c>BA|agf e2A|cde fga|gaf e2d||

